X: 9613
T: Dawn's Mandolin
R: reel
M: 4/4
K: Gminor
|:[DG,]G (3GGG [FG,]D (3DDD|[DG,]G (3GGG [FG,]D (3DDD|[DG,]G (3GGG [FG,]D (3DDD|[GG,]BAG [A,4D4A4]|
[DG,]G (3GGG [FG,]D (3DDD|[DG,]G (3GGG [FG,]D (3DDD|[G,2G2] GG [FG,]D (3DDD|B,DA,D [G,4D4]:|
|:[G2D2B2] BB [A,DA]F(3DDD|[G2D2B2] BB [A,DA]F(3DDD|[G2D2B2] BB [A,DA]F(3DDD|[GG,]BAG [A,4D4A4]|
[G2D2B2] BB [A,DA]F(3DDD|[DG,]G (3GGG FD (3CCC|[G,2G2] GG [FG,]D (3DDD|B,DA,D [G,4D4]:|

